src/epub/images/titlepage.svg

<?xml version="1.0" encoding="utf-8"?>
<svg xmlns="http://www.w3.org/2000/svg" xmlns:svg="http://www.w3.org/2000/svg" version="1.1" viewBox="0 0 1400 340">
	<title>The titlepage for the Standard Ebooks edition of Sons and Lovers, by D. H. Lawrence</title>
	<g>
		<path d="m 227.29312,51.403507 c -12.44444,0 -25.16959,9.169591 -25.16959,23.578948 0,8.046784 5.4269,15.251462 14.69006,19.836258 9.16959,4.584795 17.40351,7.111107 17.40351,12.725147 0,7.20468 -7.29825,7.57895 -11.13451,7.57895 -8.60818,0 -18.90058,-8.70176 -18.90058,-8.70176 l -8.79532,14.78363 c 0,0 10.94737,10.19883 29.00585,10.19883 15.06432,0 29.09941,-6.45614 29.09941,-24.88889 0,-10.105264 -9.45029,-17.40351 -18.05848,-21.052632 -8.79532,-3.742691 -16.09357,-6.83041 -16.09357,-11.134504 0,-4.210526 3.18129,-6.923976 9.1696,-6.923976 7.95321,0 15.62573,5.333333 15.62573,5.333333 l 7.11111,-14.035088 c 0,0 -9.91813,-7.298246 -23.95322,-7.298246 z"/>
		<path d="m 263.25218,91.356724 c 0,22.549706 16.09357,40.046786 38.92398,40.046786 22.17544,0 38.83041,-17.49708 38.83041,-40.046786 0,-22.549708 -17.40351,-39.953217 -38.83041,-39.953217 -21.23977,0 -38.92398,17.403509 -38.92398,39.953217 z m 18.99415,0 c 0,-11.508772 6.36258,-23.017544 19.92983,-23.017544 13.66082,0 19.83626,11.508772 19.83626,23.017544 0,11.508776 -5.80117,23.017546 -19.83626,23.017546 -14.40936,0 -19.92983,-11.50877 -19.92983,-23.017546 z"/>
		<path d="m 371.35891,82.093566 0.18713,0 L 402.2361,130 l 17.59064,0 0,-77.192984 -17.59064,0 0,47.906434 -0.18714,0 -30.69005,-47.906434 -17.59065,0 0,77.192984 17.59065,0 0,-47.906434 z"/>
		<path d="m 462.68787,51.403507 c -12.44445,0 -25.1696,9.169591 -25.1696,23.578948 0,8.046784 5.42691,15.251462 14.69006,19.836258 9.16959,4.584795 17.40351,7.111107 17.40351,12.725147 0,7.20468 -7.29824,7.57895 -11.1345,7.57895 -8.60819,0 -18.90059,-8.70176 -18.90059,-8.70176 l -8.79532,14.78363 c 0,0 10.94737,10.19883 29.00585,10.19883 15.06433,0 29.09942,-6.45614 29.09942,-24.88889 0,-10.105264 -9.4503,-17.40351 -18.05848,-21.052632 -8.79532,-3.742691 -16.09357,-6.83041 -16.09357,-11.134504 0,-4.210526 3.18129,-6.923976 9.16959,-6.923976 7.95322,0 15.62573,5.333333 15.62573,5.333333 l 7.11111,-14.035088 c 0,0 -9.91813,-7.298246 -23.95321,-7.298246 z"/>
		<path d="m 571.89839,52.807016 -16.28071,0 L 524.45979,130 l 18.90058,0 5.70761,-15.4386 29.38011,0 5.70761,15.4386 18.90058,0 -31.15789,-77.192984 z m 0.5614,46.31579 -17.40351,0 8.60819,-22.45614 0.18713,0 8.60819,22.45614 z"/>
		<path d="m 628.56652,82.093566 0.18713,0 L 659.44371,130 l 17.59064,0 0,-77.192984 -17.59064,0 0,47.906434 -0.18713,0 -30.69006,-47.906434 -17.59065,0 0,77.192984 17.59065,0 0,-47.906434 z"/>
		<path d="m 693.27852,52.807016 0,77.192984 22.36257,0 c 21.23977,0 38.92398,-16.09357 38.92398,-38.643276 0,-22.45614 -17.77778,-38.549708 -38.92398,-38.549708 l -22.36257,0 z m 17.59064,61.473684 0,-45.754385 2.71345,0 c 13.09942,0 21.9883,10.011696 21.9883,22.923977 -0.0936,12.912278 -8.98245,22.830408 -21.9883,22.830408 l -2.71345,0 z"/>
		<path d="m 815.53289,52.807016 -17.59065,0 0,77.192984 44.16375,0 0,-15.4386 -26.5731,0 0,-61.754384 z"/>
		<path d="m 852.29459,91.356724 c 0,22.549706 16.09356,40.046786 38.92397,40.046786 22.17544,0 38.83041,-17.49708 38.83041,-40.046786 0,-22.549708 -17.40351,-39.953217 -38.83041,-39.953217 -21.23976,0 -38.92397,17.403509 -38.92397,39.953217 z m 18.99415,0 c 0,-11.508772 6.36257,-23.017544 19.92982,-23.017544 13.66082,0 19.83626,11.508772 19.83626,23.017544 0,11.508776 -5.80117,23.017546 -19.83626,23.017546 -14.40935,0 -19.92982,-11.50877 -19.92982,-23.017546 z"/>
		<path d="m 964.02705,130 13.84796,0 32.37429,-77.192984 -19.83628,0 -19.46199,50.713454 -19.46199,-50.713454 -19.83626,0 L 964.02705,130 Z"/>
		<path d="m 1062.3326,52.807016 -44.1637,0 0,77.192984 44.1637,0 0,-15.4386 -26.5731,0 0,-15.532161 25.4503,0 0,-15.438597 -25.4503,0 0,-15.345029 26.5731,0 0,-15.438597 z"/>
		<path d="m 1077.4452,52.807016 0,77.192984 17.5906,0 0,-30.502925 23.579,30.502925 22.3625,0 -26.5731,-31.906433 c 9.4503,-2.994152 15.8129,-10.760234 15.8129,-22.362574 0,-15.157895 -10.8538,-22.923977 -25.1696,-22.923977 l -27.6023,0 z m 17.5906,34.245615 0,-20.210527 2.0585,0 c 6.6433,0 14.5965,0.467836 14.5965,10.105263 0,9.637428 -7.9532,10.105264 -14.5965,10.105264 l -2.0585,0 z"/>
		<path d="m 1177.9583,51.403507 c -12.4444,0 -25.1695,9.169591 -25.1695,23.578948 0,8.046784 5.4269,15.251462 14.69,19.836258 9.1696,4.584795 17.4035,7.111107 17.4035,12.725147 0,7.20468 -7.2982,7.57895 -11.1345,7.57895 -8.6082,0 -18.9006,-8.70176 -18.9006,-8.70176 l -8.7953,14.78363 c 0,0 10.9474,10.19883 29.0059,10.19883 15.0643,0 29.0994,-6.45614 29.0994,-24.88889 0,-10.105264 -9.4503,-17.40351 -18.0585,-21.052632 -8.7953,-3.742691 -16.0936,-6.83041 -16.0936,-11.134504 0,-4.210526 3.1813,-6.923976 9.1696,-6.923976 7.9532,0 15.6257,5.333333 15.6257,5.333333 l 7.1112,-14.035088 c 0,0 -9.9182,-7.298246 -23.9533,-7.298246 z"/>
	</g>
	<g>
		<path d="m 370.99781,232.10526 0,57.89474 16.77193,0 c 15.92982,0 29.19298,-12.07018 29.19298,-28.98246 0,-16.8421 -13.33333,-28.91228 -29.19298,-28.91228 l -16.77193,0 z m 13.19298,46.10527 0,-34.31579 2.03509,0 c 9.82456,0 16.49123,7.50877 16.49123,17.19298 -0.0702,9.68421 -6.73684,17.12281 -16.49123,17.12281 l -2.03509,0 z"/>
		<path d="m 435.80702,274.98246 c -4.42105,0 -8,3.57894 -8,8.07017 0,4.42105 3.57895,8 8,8 4.49123,0 8.07018,-3.57895 8.07018,-8 0,-4.49123 -3.57895,-8.07017 -8.07018,-8.07017 z"/>
		<path d="m 494.72259,266.77193 18.66667,0 0,23.22807 13.19298,0 0,-57.89474 -13.19298,0 0,23.08772 -18.66667,0 0,-23.08772 -13.19298,0 0,57.89474 13.19298,0 0,-23.22807 z"/>
		<path d="m 547.98356,274.98246 c -4.42105,0 -8,3.57894 -8,8.07017 0,4.42105 3.57895,8 8,8 4.49123,0 8.07017,-3.57895 8.07017,-8 0,-4.49123 -3.57894,-8.07017 -8.07017,-8.07017 z"/>
		<path d="m 606.89912,232.10526 -13.19298,0 0,57.89474 33.1228,0 0,-11.57895 -19.92982,0 0,-46.31579 z"/>
		<path d="m 668.81688,232.10526 -12.21053,0 L 633.23793,290 l 14.17544,0 4.2807,-11.57895 22.03509,0 4.2807,11.57895 14.17544,0 -23.36842,-57.89474 z m 0.42105,34.73685 -13.05263,0 6.45614,-16.84211 0.14035,0 6.45614,16.84211 z"/>
		<path d="m 737.76536,290 14.59649,0 16.49123,-57.89474 -14.59649,0 -9.89474,39.7193 -0.35088,0 -10.52631,-39.7193 -9.96492,0 -10.52631,39.7193 -0.35088,0 -9.89473,-39.7193 -14.66667,0 L 704.57238,290 719.23904,290 728.5022,257.50877 737.76536,290 Z"/>
		<path d="m 777.01755,232.10526 0,57.89474 13.19299,0 0,-22.87719 17.68421,22.87719 16.77193,0 -19.92983,-23.92982 c 7.08772,-2.24562 11.85965,-8.07018 11.85965,-16.77193 0,-11.36842 -8.14035,-17.19299 -18.87719,-17.19299 l -20.70176,0 z m 13.19299,25.68421 0,-15.15789 1.54386,0 c 4.98245,0 10.94736,0.35088 10.94736,7.57895 0,7.22807 -5.96491,7.57894 -10.94736,7.57894 l -1.54386,0 z"/>
		<path d="m 865.44188,232.10526 -33.12281,0 0,57.89474 33.12281,0 0,-11.57895 -19.92983,0 0,-11.64912 19.08772,0 0,-11.57895 -19.08772,0 0,-11.50877 19.92983,0 0,-11.57895 z"/>
		<path d="m 891.2193,254.07018 0.14035,0 23.01754,35.92982 13.19298,0 0,-57.89474 -13.19298,0 0,35.92983 -0.14035,0 -23.01754,-35.92983 -13.19299,0 0,57.89474 13.19299,0 0,-35.92982 z"/>
		<path d="m 969.61733,278.07018 c -13.26316,0 -19.08772,-9.26316 -19.08772,-17.05264 0,-7.71929 5.82456,-16.98245 19.08772,-16.98245 6.73684,0 11.36842,3.57895 11.36842,3.57895 l 5.61403,-11.22807 c 0,0 -6.45614,-5.33334 -19.01754,-5.33334 -16.42105,0 -31.36842,13.47369 -31.36842,30.10527 0,16.5614 15.01754,29.89473 31.36842,29.89473 12.5614,0 19.01754,-5.33333 19.01754,-5.33333 l -5.61403,-11.22807 c 0,0 -4.63158,3.57895 -11.36842,3.57895 z"/>
		<path d="m 1029.8388,232.10526 -33.12279,0 0,57.89474 33.12279,0 0,-11.57895 -19.9298,0 0,-11.64912 19.0877,0 0,-11.57895 -19.0877,0 0,-11.50877 19.9298,0 0,-11.57895 z"/>
	</g>
</svg>

<?xml version="1.0" encoding="utf-8"?>
<svg xmlns="http://www.w3.org/2000/svg" xmlns:svg="http://www.w3.org/2000/svg" version="1.1" viewBox="0 0 1400 340">
	<title>The titlepage for the Standard Ebooks edition of Sons and Lovers, by D. H. Lawrence</title>
	<g aria-label="SONS AND LOVERS">
		<path d="m 227.29312,51.403507 c -12.44444,0 -25.16959,9.169591 -25.16959,23.578948 0,8.046784 5.4269,15.251462 14.69006,19.836258 9.16959,4.584795 17.40351,7.111107 17.40351,12.725147 0,7.20468 -7.29825,7.57895 -11.13451,7.57895 -8.60818,0 -18.90058,-8.70176 -18.90058,-8.70176 l -8.79532,14.78363 c 0,0 10.94737,10.19883 29.00585,10.19883 15.06432,0 29.09941,-6.45614 29.09941,-24.88889 0,-10.105264 -9.45029,-17.40351 -18.05848,-21.052632 -8.79532,-3.742691 -16.09357,-6.83041 -16.09357,-11.134504 0,-4.210526 3.18129,-6.923976 9.1696,-6.923976 7.95321,0 15.62573,5.333333 15.62573,5.333333 l 7.11111,-14.035088 c 0,0 -9.91813,-7.298246 -23.95322,-7.298246 z"/>
		<path d="m 263.25218,91.356724 c 0,22.549706 16.09357,40.046786 38.92398,40.046786 22.17544,0 38.83041,-17.49708 38.83041,-40.046786 0,-22.549708 -17.40351,-39.953217 -38.83041,-39.953217 -21.23977,0 -38.92398,17.403509 -38.92398,39.953217 z m 18.99415,0 c 0,-11.508772 6.36258,-23.017544 19.92983,-23.017544 13.66082,0 19.83626,11.508772 19.83626,23.017544 0,11.508776 -5.80117,23.017546 -19.83626,23.017546 -14.40936,0 -19.92983,-11.50877 -19.92983,-23.017546 z"/>
		<path d="m 371.35891,82.093566 h 0.18713 L 402.2361,130 h 17.59064 V 52.807016 H 402.2361 v 47.906434 h -0.18714 L 371.35891,52.807016 H 353.76826 V 130 h 17.59065 z"/>
		<path d="m 462.68787,51.403507 c -12.44445,0 -25.1696,9.169591 -25.1696,23.578948 0,8.046784 5.42691,15.251462 14.69006,19.836258 9.16959,4.584795 17.40351,7.111107 17.40351,12.725147 0,7.20468 -7.29824,7.57895 -11.1345,7.57895 -8.60819,0 -18.90059,-8.70176 -18.90059,-8.70176 l -8.79532,14.78363 c 0,0 10.94737,10.19883 29.00585,10.19883 15.06433,0 29.09942,-6.45614 29.09942,-24.88889 0,-10.105264 -9.4503,-17.40351 -18.05848,-21.052632 -8.79532,-3.742691 -16.09357,-6.83041 -16.09357,-11.134504 0,-4.210526 3.18129,-6.923976 9.16959,-6.923976 7.95322,0 15.62573,5.333333 15.62573,5.333333 l 7.11111,-14.035088 c 0,0 -9.91813,-7.298246 -23.95321,-7.298246 z"/>
		<path d="M 571.89839,52.807016 H 555.61768 L 524.45979,130 h 18.90058 l 5.70761,-15.4386 h 29.38011 L 584.1557,130 h 18.90058 z m 0.5614,46.31579 h -17.40351 l 8.60819,-22.45614 h 0.18713 z"/>
		<path d="m 628.56652,82.093566 h 0.18713 L 659.44371,130 h 17.59064 V 52.807016 h -17.59064 v 47.906434 h -0.18713 L 628.56652,52.807016 H 610.97587 V 130 h 17.59065 z"/>
		<path d="M 693.27852,52.807016 V 130 h 22.36257 c 21.23977,0 38.92398,-16.09357 38.92398,-38.643276 0,-22.45614 -17.77778,-38.549708 -38.92398,-38.549708 z M 710.86916,114.2807 V 68.526315 h 2.71345 c 13.09942,0 21.9883,10.011696 21.9883,22.923977 -0.0936,12.912278 -8.98245,22.830408 -21.9883,22.830408 z"/>
		<path d="M 815.53289,52.807016 H 797.94224 V 130 h 44.16375 v -15.4386 h -26.5731 z"/>
		<path d="m 852.29459,91.356724 c 0,22.549706 16.09356,40.046786 38.92397,40.046786 22.17544,0 38.83041,-17.49708 38.83041,-40.046786 0,-22.549708 -17.40351,-39.953217 -38.83041,-39.953217 -21.23976,0 -38.92397,17.403509 -38.92397,39.953217 z m 18.99415,0 c 0,-11.508772 6.36257,-23.017544 19.92982,-23.017544 13.66082,0 19.83626,11.508772 19.83626,23.017544 0,11.508776 -5.80117,23.017546 -19.83626,23.017546 -14.40935,0 -19.92982,-11.50877 -19.92982,-23.017546 z"/>
		<path d="m 964.02705,130 h 13.84796 L 1010.2493,52.807016 H 990.41302 L 970.95103,103.52047 951.48904,52.807016 h -19.83626 z"/>
		<path d="m 1062.3326,52.807016 h -44.1637 V 130 h 44.1637 v -15.4386 h -26.5731 V 99.029239 h 25.4503 V 83.590642 h -25.4503 V 68.245613 h 26.5731 z"/>
		<path d="M 1077.4452,52.807016 V 130 h 17.5906 V 99.497075 L 1118.6148,130 h 22.3625 l -26.5731,-31.906433 c 9.4503,-2.994152 15.8129,-10.760234 15.8129,-22.362574 0,-15.157895 -10.8538,-22.923977 -25.1696,-22.923977 z m 17.5906,34.245615 V 66.842104 h 2.0585 c 6.6433,0 14.5965,0.467836 14.5965,10.105263 0,9.637428 -7.9532,10.105264 -14.5965,10.105264 z"/>
		<path d="m 1177.9583,51.403507 c -12.4444,0 -25.1695,9.169591 -25.1695,23.578948 0,8.046784 5.4269,15.251462 14.69,19.836258 9.1696,4.584795 17.4035,7.111107 17.4035,12.725147 0,7.20468 -7.2982,7.57895 -11.1345,7.57895 -8.6082,0 -18.9006,-8.70176 -18.9006,-8.70176 l -8.7953,14.78363 c 0,0 10.9474,10.19883 29.0059,10.19883 15.0643,0 29.0994,-6.45614 29.0994,-24.88889 0,-10.105264 -9.4503,-17.40351 -18.0585,-21.052632 -8.7953,-3.742691 -16.0936,-6.83041 -16.0936,-11.134504 0,-4.210526 3.1813,-6.923976 9.1696,-6.923976 7.9532,0 15.6257,5.333333 15.6257,5.333333 l 7.1112,-14.035088 c 0,0 -9.9182,-7.298246 -23.9533,-7.298246 z"/>
	</g>
	<g aria-label="D. H. LAWRENCE">
		<path d="M 370.99781,232.10526 V 290 h 16.77193 c 15.92982,0 29.19298,-12.07018 29.19298,-28.98246 0,-16.8421 -13.33333,-28.91228 -29.19298,-28.91228 z m 13.19298,46.10527 v -34.31579 h 2.03509 c 9.82456,0 16.49123,7.50877 16.49123,17.19298 -0.0702,9.68421 -6.73684,17.12281 -16.49123,17.12281 z"/>
		<path d="m 435.80702,274.98246 c -4.42105,0 -8,3.57894 -8,8.07017 0,4.42105 3.57895,8 8,8 4.49123,0 8.07018,-3.57895 8.07018,-8 0,-4.49123 -3.57895,-8.07017 -8.07018,-8.07017 z"/>
		<path d="m 494.72259,266.77193 h 18.66667 V 290 h 13.19298 v -57.89474 h -13.19298 v 23.08772 H 494.72259 V 232.10526 H 481.52961 V 290 h 13.19298 z"/>
		<path d="m 547.98356,274.98246 c -4.42105,0 -8,3.57894 -8,8.07017 0,4.42105 3.57895,8 8,8 4.49123,0 8.07017,-3.57895 8.07017,-8 0,-4.49123 -3.57894,-8.07017 -8.07017,-8.07017 z"/>
		<path d="M 606.89912,232.10526 H 593.70614 V 290 h 33.1228 v -11.57895 h -19.92982 z"/>
		<path d="M 668.81688,232.10526 H 656.60635 L 633.23793,290 h 14.17544 l 4.2807,-11.57895 h 22.03509 L 678.00986,290 h 14.17544 z m 0.42105,34.73685 H 656.1853 L 662.64144,250 h 0.14035 z"/>
		<path d="m 737.76536,290 h 14.59649 l 16.49123,-57.89474 h -14.59649 l -9.89474,39.7193 h -0.35088 l -10.52631,-39.7193 h -9.96492 l -10.52631,39.7193 h -0.35088 l -9.89473,-39.7193 H 688.08115 L 704.57238,290 h 14.66666 l 9.26316,-32.49123 z"/>
		<path d="M 777.01755,232.10526 V 290 h 13.19299 V 267.12281 L 807.89475,290 h 16.77193 l -19.92983,-23.92982 c 7.08772,-2.24562 11.85965,-8.07018 11.85965,-16.77193 0,-11.36842 -8.14035,-17.19299 -18.87719,-17.19299 z m 13.19299,25.68421 v -15.15789 h 1.54386 c 4.98245,0 10.94736,0.35088 10.94736,7.57895 0,7.22807 -5.96491,7.57894 -10.94736,7.57894 z"/>
		<path d="M 865.44188,232.10526 H 832.31907 V 290 h 33.12281 v -11.57895 h -19.92983 v -11.64912 h 19.08772 v -11.57895 h -19.08772 v -11.50877 h 19.92983 z"/>
		<path d="m 891.2193,254.07018 h 0.14035 L 914.37719,290 h 13.19298 v -57.89474 h -13.19298 v 35.92983 h -0.14035 L 891.2193,232.10526 H 878.02631 V 290 h 13.19299 z"/>
		<path d="m 969.61733,278.07018 c -13.26316,0 -19.08772,-9.26316 -19.08772,-17.05264 0,-7.71929 5.82456,-16.98245 19.08772,-16.98245 6.73684,0 11.36842,3.57895 11.36842,3.57895 l 5.61403,-11.22807 c 0,0 -6.45614,-5.33334 -19.01754,-5.33334 -16.42105,0 -31.36842,13.47369 -31.36842,30.10527 0,16.5614 15.01754,29.89473 31.36842,29.89473 12.5614,0 19.01754,-5.33333 19.01754,-5.33333 l -5.61403,-11.22807 c 0,0 -4.63158,3.57895 -11.36842,3.57895 z"/>
		<path d="M 1029.8388,232.10526 H 996.71601 V 290 h 33.12279 v -11.57895 h -19.9298 v -11.64912 h 19.0877 v -11.57895 h -19.0877 v -11.50877 h 19.9298 z"/>
	</g>
</svg>
